build/img/r32-icon.svg

<svg width="56" height="56" viewBox="0 0 56 56" fill="none" xmlns="http://www.w3.org/2000/svg">
<rect width="56" height="56" rx="28" fill="#58FA8F"/>
<path d="M21.5606 31.8872L19.5998 32.4126L20.5564 35.9827L18.9337 36.4175L16.3972 26.9514L19.6563 26.0782C20.9184 25.74 21.908 25.755 22.6251 26.1233C23.3512 26.4892 23.8375 27.1319 24.0839 28.0515C24.253 28.6825 24.2549 29.2666 24.0896 29.8037C23.9219 30.3317 23.5707 30.7882 23.0361 31.173L26.1008 34.4971L24.2617 34.9898L21.5606 31.8872ZM18.4041 27.95L19.2157 30.9792L20.852 30.5407C21.5282 30.3596 21.9833 30.0927 22.2173 29.7401C22.4489 29.3785 22.5032 28.9678 22.38 28.508C22.2543 28.0392 22.002 27.7107 21.6231 27.5223C21.2441 27.334 20.7165 27.3304 20.0404 27.5116L18.4041 27.95ZM30.2595 33.5132C29.1957 33.7982 28.2947 33.7353 27.5565 33.3243C26.8159 32.9044 26.2953 32.1694 25.9947 31.1194L27.6986 30.6629C27.8833 31.2801 28.154 31.6955 28.5108 31.9091C28.8651 32.1137 29.3128 32.1435 29.8537 31.9986C30.4126 31.8488 30.798 31.6103 31.0099 31.283C31.2193 30.9466 31.266 30.5621 31.1501 30.1294C31.0462 29.7417 30.8252 29.4579 30.4871 29.278C30.158 29.0956 29.7321 29.0744 29.2092 29.2146L27.9651 29.5479L27.581 28.1145L28.8251 27.7811C29.2578 27.6652 29.5657 27.4619 29.7487 27.1713C29.9317 26.8807 29.9749 26.5551 29.8783 26.1945C29.7769 25.8158 29.5685 25.5431 29.2533 25.3764C28.9471 25.2072 28.5505 25.1878 28.0637 25.3183C27.1622 25.5598 26.8061 26.1963 26.9955 27.2278L25.2916 27.6843C25.056 26.7329 25.1419 25.9176 25.5493 25.2383C25.9633 24.5476 26.6662 24.0694 27.6579 23.8037C28.1808 23.6636 28.6587 23.608 29.0916 23.6369C29.5221 23.6569 29.8994 23.749 30.2237 23.9133C30.557 24.0753 30.8359 24.3049 31.0605 24.6022C31.2827 24.8906 31.4469 25.233 31.5532 25.6297C31.6692 26.0625 31.6796 26.48 31.5845 26.8823C31.4894 27.2846 31.2725 27.6471 30.9338 27.9698C31.4539 28.072 31.8786 28.2867 32.2079 28.614C32.5347 28.9322 32.761 29.3257 32.8866 29.7945C32.9977 30.2092 33.0282 30.6117 32.9782 31.002C32.9258 31.3832 32.7891 31.7387 32.5683 32.0684C32.354 32.3867 32.0531 32.6702 31.6657 32.919C31.2872 33.1653 30.8185 33.3634 30.2595 33.5132ZM34.3065 30.762L36.5764 27.0086C36.7966 26.6404 36.9814 26.3203 37.1307 26.0484C37.2801 25.7765 37.3892 25.5347 37.4581 25.323C37.536 25.1088 37.5815 24.9179 37.5945 24.7501C37.6075 24.5824 37.5923 24.4174 37.5488 24.2551C37.4377 23.8404 37.2176 23.5419 36.8885 23.3595C36.5594 23.1771 36.165 23.1475 35.7052 23.2707C35.2455 23.3939 34.9199 23.6213 34.7285 23.9528C34.5371 24.2843 34.5066 24.6934 34.6371 25.1802L32.9332 25.6368C32.81 25.177 32.771 24.743 32.8162 24.3347C32.859 23.9174 32.9806 23.5418 33.181 23.2079C33.3904 22.8716 33.6696 22.5794 34.0186 22.3312C34.3766 22.0807 34.8036 21.889 35.2994 21.7561C35.7952 21.6233 36.2563 21.577 36.6826 21.6174C37.1155 21.6464 37.5022 21.7553 37.8428 21.9443C38.1899 22.1218 38.4839 22.3716 38.7247 22.6935C38.9632 23.0065 39.1392 23.3748 39.2527 23.7985C39.3952 24.3304 39.3641 24.8992 39.1592 25.5049C38.9543 26.1106 38.5794 26.8391 38.0345 27.6905L36.4296 30.1931L40.6623 29.059L41.0463 30.4924L34.6905 32.1954L34.3065 30.762Z" fill="black"/>
</svg>

<svg width="56" height="56" viewBox="0 0 56 56" fill="none" xmlns="http://www.w3.org/2000/svg"><rect width="56" height="56" rx="28" fill="#58FA8F"/><path d="M21.56 31.887l-1.96.526.956 3.57-1.622.434-2.537-9.466 3.26-.873c1.261-.338 2.251-.323 2.968.045.726.366 1.212 1.009 1.459 1.928.169.632.17 1.216.006 1.753-.168.528-.52.984-1.054 1.369l3.065 3.324-1.84.493-2.7-3.103zm-3.156-3.937l.812 3.03 1.636-.44c.676-.18 1.131-.447 1.365-.8.232-.361.286-.772.163-1.232-.126-.469-.378-.797-.757-.986-.379-.188-.907-.192-1.583-.01l-1.636.438zm11.855 5.563c-1.063.285-1.964.222-2.703-.189-.74-.42-1.26-1.155-1.561-2.205l1.704-.456c.184.617.455 1.032.812 1.246.354.205.802.235 1.343.09.559-.15.944-.389 1.156-.716.21-.336.256-.72.14-1.154a1.3 1.3 0 00-.663-.851c-.329-.182-.755-.204-1.278-.063l-1.244.333-.384-1.433 1.244-.334c.433-.116.74-.32.924-.61.183-.29.226-.616.13-.976-.102-.38-.31-.652-.626-.819-.306-.169-.703-.188-1.19-.058-.9.242-1.257.878-1.067 1.91l-1.704.456c-.236-.951-.15-1.766.257-2.446.414-.69 1.117-1.169 2.109-1.434.523-.14 1-.196 1.434-.167.43.02.807.112 1.132.276.333.162.612.392.837.69.222.288.386.63.492 1.027.116.433.127.85.031 1.252-.095.403-.311.765-.65 1.088.52.102.945.317 1.274.644.327.318.553.712.679 1.18.11.415.141.818.091 1.208a2.51 2.51 0 01-.41 1.066 3.054 3.054 0 01-.902.851c-.379.246-.848.444-1.407.594zm4.047-2.751l2.27-3.753c.22-.369.405-.689.555-.96a4.31 4.31 0 00.327-.726c.078-.214.123-.405.136-.573a1.462 1.462 0 00-.045-.495c-.111-.415-.331-.713-.66-.895-.33-.183-.724-.212-1.184-.09-.46.124-.785.351-.977.683-.19.331-.221.74-.09 1.227l-1.705.457a3.518 3.518 0 01-.117-1.302c.043-.418.165-.793.365-1.127a3.07 3.07 0 01.838-.877c.358-.25.785-.442 1.28-.575a3.926 3.926 0 011.384-.139c.432.03.82.138 1.16.327.347.178.64.428.882.75.238.313.414.68.528 1.105.142.531.111 1.1-.094 1.706-.205.606-.58 1.334-1.124 2.186l-1.605 2.502 4.232-1.134.384 1.433-6.355 1.703-.385-1.433z" fill="#000"/></svg>
